X: 42760
T: White Lightning
R: reel
M: 4/4
K: Edorian
BEEE EFGA|BEGB EFGE|FDDD dcde|fdec dBAF|
BEEE EFGA|BEGB EFGE|FDDD dcdB|1 ADFDE2EA:|2 ADFDE2E2||
|:eBBB eBef|gefd eBBc|dAAA dade|fafd efed|
eBBB eBef|gefd eBBc|dAAA dBAF|GBAFE2E2:|

